X: 8063
T: Connie The Soldier
R: jig
M: 6/8
K: Dmajor
|:Ac/A/A AdB|cAG EFD|DGG DE/F/G|AGE cGE|
ABG AdB|cAG EFD|D3 AGE|GED DE/F/G|
Ac/A/A A2d|cAG EFD|DGG DE/F/G|AGE cGE|
A2G AdB|cAG EFD|D3 AGE|GED D2e||
|:fed ed^c|ed^c d2e|fed efd|=cAG Ade|
fed efd|cAB c2d|cAG EF/G/E|1 FDD D2e:|2 FDD D3||

